devices/symbolic/printer-symbolic.svg

<?xml version="1.0" encoding="UTF-8" standalone="no"?>
<!-- Created with Inkscape (http://www.inkscape.org/) -->

<svg
   xmlns:dc="http://purl.org/dc/elements/1.1/"
   xmlns:cc="http://creativecommons.org/ns#"
   xmlns:rdf="http://www.w3.org/1999/02/22-rdf-syntax-ns#"
   xmlns:svg="http://www.w3.org/2000/svg"
   xmlns="http://www.w3.org/2000/svg"
   xmlns:xlink="http://www.w3.org/1999/xlink"
   xmlns:inkscape="http://www.inkscape.org/namespaces/inkscape"
   version="1.1"
   width="16"
   height="16"
   id="svg7384">
  <title
     id="title9167">Gnome Symbolic Icon Theme</title>
  <defs
     id="defs11">
    <linearGradient
       x1="20.561552"
       y1="36.999981"
       x2="20.278992"
       y2="19.999981"
       id="linearGradient2877"
       xlink:href="#linearGradient6866"
       gradientUnits="userSpaceOnUse"
       gradientTransform="matrix(0.34883886,0,0,0.37500427,-0.37213192,-0.18761334)" />
    <linearGradient
       x1="11.519291"
       y1="20"
       x2="11.50602"
       y2="37"
       id="linearGradient2875"
       xlink:href="#linearGradient8589"
       gradientUnits="userSpaceOnUse"
       gradientTransform="matrix(0.34883886,0,0,0.37500427,-0.37213199,-0.1876208)" />
    <radialGradient
       cx="3.7590685"
       cy="11.918329"
       r="21"
       fx="3.7590685"
       fy="11.918329"
       id="radialGradient2872"
       xlink:href="#linearGradient6842"
       gradientUnits="userSpaceOnUse"
       gradientTransform="matrix(0.3170197,0.00536125,-0.00400368,0.19223751,0.43811555,6.4966532)" />
    <linearGradient
       x1="15.600636"
       y1="33"
       x2="15.335471"
       y2="21"
       id="linearGradient2869"
       xlink:href="#linearGradient2366"
       gradientUnits="userSpaceOnUse"
       gradientTransform="matrix(0.33544392,0,0,0.36881684,-0.05065306,-0.458053)" />
    <linearGradient
       x1="21.919418"
       y1="21"
       x2="22.007805"
       y2="33"
       id="linearGradient2867"
       xlink:href="#linearGradient6828"
       gradientUnits="userSpaceOnUse"
       gradientTransform="matrix(0.33544392,0,0,0.36881684,-0.05065306,-0.458053)" />
    <linearGradient
       x1="12"
       y1="10"
       x2="11.999999"
       y2="0.80098301"
       id="linearGradient6666"
       xlink:href="#linearGradient6660"
       gradientUnits="userSpaceOnUse"
       gradientTransform="matrix(0.75000012,0,0,0.71431976,-1.0000009,-0.572158)" />
    <linearGradient
       id="linearGradient8589">
      <stop
         id="stop8591"
         style="stop-color:#fefefe;stop-opacity:1"
         offset="0" />
      <stop
         id="stop8593"
         style="stop-color:#bebebe;stop-opacity:1"
         offset="1" />
    </linearGradient>
    <linearGradient
       id="linearGradient2366">
      <stop
         id="stop2368"
         style="stop-color:#2e3436;stop-opacity:1"
         offset="0" />
      <stop
         id="stop2370"
         style="stop-color:#555753;stop-opacity:1"
         offset="1" />
    </linearGradient>
    <linearGradient
       id="linearGradient6828">
      <stop
         id="stop6830"
         style="stop-color:#6e6e6e;stop-opacity:1"
         offset="0" />
      <stop
         id="stop6832"
         style="stop-color:#1e1e1e;stop-opacity:1"
         offset="1" />
    </linearGradient>
    <linearGradient
       id="linearGradient6842">
      <stop
         id="stop6844"
         style="stop-color:#ffffff;stop-opacity:1"
         offset="0" />
      <stop
         id="stop6846"
         style="stop-color:#ffffff;stop-opacity:0"
         offset="1" />
    </linearGradient>
    <linearGradient
       id="linearGradient6866">
      <stop
         id="stop6868"
         style="stop-color:#828282;stop-opacity:1"
         offset="0" />
      <stop
         id="stop6870"
         style="stop-color:#aaaaaa;stop-opacity:1"
         offset="1" />
    </linearGradient>
    <linearGradient
       id="linearGradient6660">
      <stop
         id="stop6662"
         style="stop-color:#787878;stop-opacity:1"
         offset="0" />
      <stop
         id="stop6664"
         style="stop-color:#787878;stop-opacity:0"
         offset="1" />
    </linearGradient>
  </defs>
  <metadata
     id="metadata90">
    <rdf:RDF>
      <cc:Work
         rdf:about="">
        <dc:format>image/svg+xml</dc:format>
        <dc:type
           rdf:resource="http://purl.org/dc/dcmitype/StillImage" />
        <dc:title>Gnome Symbolic Icon Theme</dc:title>
      </cc:Work>
    </rdf:RDF>
  </metadata>
  <path
     d="M 3.9375,0 C 3.5771484,0.046875 3,0.25 3,1 L 3,3 C 3,3 2,3 2,4 L 2,7 1,7 C 1,7 0,7 0,8 l 0,5.5 C 0,14 0.5,14 0.5,14 L 1,14 c 0,1 1,1 1,1 0,0 0,1 1,1 l 10,0 c 1,0 1,-1 1,-1 0,0 1,0 1,-1 l 0.5,0 C 16,14 16,13.580799 16,13.5 L 16,8 C 16,7 15,7 15,7 L 14,7 14,4 C 14,3 13,3 13,3 L 13,1 C 13,0 12,0 11.8125,0 L 4.1875,0 C 4.140625,0 4.0576172,-0.015625 3.9375,0 z M 4,1 12,1 12,7 4,7 4,1 z M 1.5625,8 c 0.061523,-0.00879 0.09375,0 0.09375,0 L 3,8 13,8 14.34375,8 C 14.34375,8 15,8 15,8.5625 L 15,13 1,13 1,8.5625 C 1,8.140625 1.3779297,8.0263672 1.5625,8 z M 3,14 l 10,0 0,1 -10,0 0,-1 z"
     inkscape:connector-curvature="0"
     id="path3076"
     style="font-size:medium;font-style:normal;font-variant:normal;font-weight:normal;font-stretch:normal;text-indent:0;text-align:start;text-decoration:none;line-height:normal;letter-spacing:normal;word-spacing:normal;text-transform:none;direction:ltr;block-progression:tb;writing-mode:lr-tb;text-anchor:start;baseline-shift:baseline;color:#000000;fill:#bebebe;fill-opacity:1;stroke:none;stroke-width:1px;marker:none;visibility:visible;display:inline;overflow:visible;enable-background:accumulate;font-family:Sans;-inkscape-font-specification:Sans" />
  <path
     d="M 3,8 3,12 13,12 13,8 3,8 z"
     inkscape:connector-curvature="0"
     id="path3850"
     style="opacity:0.5;fill:#bebebe;fill-opacity:1;stroke:none" />
</svg>

<?xml version="1.0" encoding="UTF-8" standalone="no"?>
<!-- Created with Inkscape (http://www.inkscape.org/) -->

<svg
   xmlns:dc="http://purl.org/dc/elements/1.1/"
   xmlns:cc="http://creativecommons.org/ns#"
   xmlns:rdf="http://www.w3.org/1999/02/22-rdf-syntax-ns#"
   xmlns:svg="http://www.w3.org/2000/svg"
   xmlns="http://www.w3.org/2000/svg"
   xmlns:xlink="http://www.w3.org/1999/xlink"
   xmlns:sodipodi="http://sodipodi.sourceforge.net/DTD/sodipodi-0.dtd"
   xmlns:inkscape="http://www.inkscape.org/namespaces/inkscape"
   version="1.1"
   width="16"
   height="16"
   id="svg7384"
   inkscape:version="0.48.4 r9939"
   sodipodi:docname="printer-symbolic.svg">
  <sodipodi:namedview
     pagecolor="#ffffff"
     bordercolor="#666666"
     borderopacity="1"
     objecttolerance="10"
     gridtolerance="10"
     guidetolerance="10"
     inkscape:pageopacity="0"
     inkscape:pageshadow="2"
     inkscape:window-width="766"
     inkscape:window-height="596"
     id="namedview7"
     showgrid="true"
     inkscape:zoom="17.46875"
     inkscape:cx="-3.6130657"
     inkscape:cy="8"
     inkscape:window-x="256"
     inkscape:window-y="531"
     inkscape:window-maximized="0"
     inkscape:current-layer="svg7384"
     showguides="true"
     inkscape:guide-bbox="true">
    <inkscape:grid
       type="xygrid"
       id="grid3000" />
  </sodipodi:namedview>
  <title
     id="title9167">Gnome Symbolic Icon Theme</title>
  <defs
     id="defs11">
    <linearGradient
       gradientTransform="matrix(0.34883886,0,0,0.37500427,-0.37213192,-0.18761334)"
       gradientUnits="userSpaceOnUse"
       xlink:href="#linearGradient6866"
       id="linearGradient2877"
       y2="19.999981"
       x2="20.278992"
       y1="36.999981"
       x1="20.561552" />
    <linearGradient
       gradientTransform="matrix(0.34883886,0,0,0.37500427,-0.37213199,-0.1876208)"
       gradientUnits="userSpaceOnUse"
       xlink:href="#linearGradient8589"
       id="linearGradient2875"
       y2="37"
       x2="11.50602"
       y1="20"
       x1="11.519291" />
    <radialGradient
       gradientTransform="matrix(0.3170197,0.00536125,-0.00400368,0.19223751,0.43811555,6.4966532)"
       gradientUnits="userSpaceOnUse"
       xlink:href="#linearGradient6842"
       id="radialGradient2872"
       fy="11.918329"
       fx="3.7590685"
       r="21"
       cy="11.918329"
       cx="3.7590685" />
    <linearGradient
       gradientTransform="matrix(0.33544392,0,0,0.36881684,-0.05065306,-0.458053)"
       gradientUnits="userSpaceOnUse"
       xlink:href="#linearGradient2366"
       id="linearGradient2869"
       y2="21"
       x2="15.335471"
       y1="33"
       x1="15.600636" />
    <linearGradient
       gradientTransform="matrix(0.33544392,0,0,0.36881684,-0.05065306,-0.458053)"
       gradientUnits="userSpaceOnUse"
       xlink:href="#linearGradient6828"
       id="linearGradient2867"
       y2="33"
       x2="22.007805"
       y1="21"
       x1="21.919418" />
    <linearGradient
       gradientTransform="matrix(0.75000012,0,0,0.71431976,-1.0000009,-0.572158)"
       gradientUnits="userSpaceOnUse"
       xlink:href="#linearGradient6660"
       id="linearGradient6666"
       y2="0.80098301"
       x2="11.999999"
       y1="10"
       x1="12" />
    <linearGradient
       id="linearGradient8589">
      <stop
         offset="0"
         style="stop-color:#fefefe;stop-opacity:1"
         id="stop8591" />
      <stop
         offset="1"
         style="stop-color:#bebebe;stop-opacity:1"
         id="stop8593" />
    </linearGradient>
    <linearGradient
       id="linearGradient2366">
      <stop
         offset="0"
         style="stop-color:#2e3436;stop-opacity:1"
         id="stop2368" />
      <stop
         offset="1"
         style="stop-color:#555753;stop-opacity:1"
         id="stop2370" />
    </linearGradient>
    <linearGradient
       id="linearGradient6828">
      <stop
         offset="0"
         style="stop-color:#6e6e6e;stop-opacity:1"
         id="stop6830" />
      <stop
         offset="1"
         style="stop-color:#1e1e1e;stop-opacity:1"
         id="stop6832" />
    </linearGradient>
    <linearGradient
       id="linearGradient6842">
      <stop
         offset="0"
         style="stop-color:white;stop-opacity:1"
         id="stop6844" />
      <stop
         offset="1"
         style="stop-color:white;stop-opacity:0"
         id="stop6846" />
    </linearGradient>
    <linearGradient
       id="linearGradient6866">
      <stop
         offset="0"
         style="stop-color:#828282;stop-opacity:1"
         id="stop6868" />
      <stop
         offset="1"
         style="stop-color:#aaa;stop-opacity:1"
         id="stop6870" />
    </linearGradient>
    <linearGradient
       id="linearGradient6660">
      <stop
         offset="0"
         style="stop-color:#787878;stop-opacity:1"
         id="stop6662" />
      <stop
         offset="1"
         style="stop-color:#787878;stop-opacity:0"
         id="stop6664" />
    </linearGradient>
  </defs>
  <metadata
     id="metadata90">
    <rdf:RDF>
      <cc:Work
         rdf:about="">
        <dc:format>image/svg+xml</dc:format>
        <dc:type
           rdf:resource="http://purl.org/dc/dcmitype/StillImage" />
        <dc:title>Gnome Symbolic Icon Theme</dc:title>
      </cc:Work>
    </rdf:RDF>
  </metadata>
  <path
     style="font-size:medium;font-style:normal;font-variant:normal;font-weight:normal;font-stretch:normal;text-indent:0;text-align:start;text-decoration:none;line-height:normal;letter-spacing:normal;word-spacing:normal;text-transform:none;direction:ltr;block-progression:tb;writing-mode:lr-tb;text-anchor:start;baseline-shift:baseline;color:#000000;fill:#bebebe;fill-opacity:1;stroke:none;stroke-width:1px;marker:none;visibility:visible;display:inline;overflow:visible;enable-background:accumulate;font-family:Sans;-inkscape-font-specification:Sans"
     d="M 3.9375 0 C 3.5771484 0.046875 3 0.25 3 1 L 3 3 C 3 3 2 3 2 4 L 2 7 L 1 7 C 1 7 0 7 0 8 L 0 13.5 C 0 14 0.5 14 0.5 14 L 1 14 C 1 15 2 15 2 15 C 2 15 2 16 3 16 L 13 16 C 14 16 14 15 14 15 C 14 15 15 15 15 14 L 15.5 14 C 16 14 16 13.580799 16 13.5 L 16 8 C 16 7 15 7 15 7 L 14 7 L 14 4 C 14 3 13 3 13 3 L 13 1 C 13 0 12 0 11.8125 0 L 4.1875 0 C 4.140625 0 4.0576172 -0.015625 3.9375 0 z M 4 1 L 12 1 L 12 7 L 4 7 L 4 1 z M 1.5625 8 C 1.6240234 7.9912109 1.65625 8 1.65625 8 L 3 8 L 13 8 L 14.34375 8 C 14.34375 8 15 8 15 8.5625 L 15 13 L 1 13 L 1 8.5625 C 1 8.140625 1.3779297 8.0263672 1.5625 8 z M 3 14 L 13 14 L 13 15 L 3 15 L 3 14 z "
     id="path3076" />
  <path
     style="fill:#bebebe;stroke:none;stroke-width:1px;stroke-linecap:butt;stroke-linejoin:miter;stroke-opacity:1;fill-opacity:1;opacity:0.5"
     d="M 3,8 3,12 13,12 13,8 3,8 z"
     id="path3850"
     inkscape:connector-curvature="0" />
</svg>
